assets/idea.svg

<svg height="512" viewBox="0 0 50 58" width="512" xmlns="http://www.w3.org/2000/svg"><g id="Page-1" fill="none" fill-rule="evenodd"><g id="061---tip-alert" fill-rule="nonzero"><path id="Shape" d="m38.68 11h7.32c2.209139 0 4 1.790861 4 4v27c0 2.209139-1.790861 4-4 4h-10c-.6290338.0020295-1.2209561.2979907-1.6.8l-7.86 10.48c-.3813276.4562785-.9453566.7199689-1.54.7199689s-1.1586724-.2636904-1.54-.7199689l-7.86-10.48c-.3790439-.5020093-.9709662-.7979705-1.6-.8h-10c-2.209139 0-4-1.790861-4-4v-27c0-2.209139 1.790861-4 4-4z" fill="#4482c3"/><path id="Shape" d="m22 45c-.5522847 0-1-.4477153-1-1v-2c0-.5522847.4477153-1 1-1s1 .4477153 1 1v2c0 .5522847-.4477153 1-1 1z" fill="#464f5d"/><path id="Shape" d="m28 45c-.5522847 0-1-.4477153-1-1v-2c0-.5522847.4477153-1 1-1s1 .4477153 1 1v2c0 .5522847-.4477153 1-1 1z" fill="#464f5d"/><g fill="#f3d55b"><path id="Shape" d="m9 6c-.2271603.0001065-.44758781-.0771313-.625-.219l-5-4c-.43133439-.34517797-.50117797-.97466561-.156-1.406.34517797-.43133439.97466561-.50117797 1.406-.156l5 4c.33177906.26530889.4597225.71128175.31905458 1.1121292-.14066797.40084745-.51924155.66907009-.94405458.6688708z"/><path id="Shape" d="m41 6c-.424813.00019929-.8033866-.26802335-.9440546-.6688708-.1406679-.40084745-.0127245-.84682031.3190546-1.1121292l5-4c.4313344-.34517797 1.060822-.27533439 1.406.156s.2753344 1.06082203-.156 1.406l-5 4c-.1774122.1418687-.3978397.2191065-.625.219z"/><path id="Shape" d="m4 35c-.42481303.0001993-.80338661-.2680233-.94405458-.6688708-.14066797-.4008474-.01272448-.8468203.31905458-1.1121292l5-4c.27902443-.223291.65597795-.2807626.98886584-.1507659.33288789.1299968.57113654.4277123.625.781.05386346.3532878-.08484141.7084749-.36386584.9317659l-5 4c-.17741219.1418687-.3978397.2191065-.625.219z"/><path id="Shape" d="m46 35c-.2271603.0001065-.4475878-.0771313-.625-.219l-5-4c-.4313344-.345178-.5011779-.9746656-.156-1.406.345178-.4313344.9746656-.5011779 1.406-.156l5 4c.3317791.2653089.4597225.7112818.3190546 1.1121292-.140668.4008475-.5192416.6690701-.9440546.6688708z"/><path id="Shape" d="m7 17h-3c-.55228475 0-1-.4477153-1-1s.44771525-1 1-1h3c.55228475 0 1 .4477153 1 1s-.44771525 1-1 1z"/><path id="Shape" d="m46 17h-3c-.5522847 0-1-.4477153-1-1s.4477153-1 1-1h3c.5522847 0 1 .4477153 1 1s-.4477153 1-1 1z"/></g><path id="Shape" d="m31 33v6c0 1.6568542-1.3431458 3-3 3h-6c-1.6568542 0-3-1.3431458-3-3v-6z" fill="#95a5a5"/><path id="Shape" d="m39 14c.0032884 3.8724929-1.6053494 7.5716354-4.44 10.21-2.319861 2.2379075-3.6087437 5.3370186-3.56 8.56v2.23h-12v-2.06c.0472425-3.301962-1.2611404-6.478947-3.62-8.79-3.1264441-2.9393694-4.7207106-7.1575328-4.32-11.43.6914662-7.44514098 7.1113623-13.03284493 14.5807101-12.69065577s13.3514518 6.49347794 13.3592899 13.97065577z" fill="#f0c419"/><path id="Shape" d="m23 32c-.5522847 0-1-.4477153-1-1v-3c0-.5522847.4477153-1 1-1s1 .4477153 1 1v3c0 .5522847-.4477153 1-1 1z" fill="#f29c1f"/><path id="Shape" d="m23 24c-.5522847 0-1-.4477153-1-1v-1c0-.5522847.4477153-1 1-1s1 .4477153 1 1v1c0 .5522847-.4477153 1-1 1z" fill="#f29c1f"/><path id="Shape" d="m27 32c-.5522847 0-1-.4477153-1-1v-3c0-.5522847.4477153-1 1-1s1 .4477153 1 1v3c0 .5522847-.4477153 1-1 1z" fill="#f29c1f"/><path id="Shape" d="m27 24c-.5522847 0-1-.4477153-1-1v-1c0-.5522847.4477153-1 1-1s1 .4477153 1 1v1c0 .5522847-.4477153 1-1 1z" fill="#f29c1f"/><path id="Shape" d="m16 12c-.0644704.0000236-.1287846-.0063409-.192-.019-.5411314-.1057899-.894529-.6296237-.79-1.171.925-4.761 5.41-6.657 5.6-6.735.330292-.13629682.708208-.08603158.9913905.13186131.2831825.21789288.4286095.57031029.3815.9245s-.2795985.65634187-.6098905.79263869c-.038.015-3.685 1.583-4.4 5.266-.0909587.4700102-.5022694.8096246-.981.81z" fill="#f9eab0"/></g></g></svg>

<svg xmlns="http://www.w3.org/2000/svg" width="44.001" height="45" viewBox="0 0 44.001 45">
    <path d="M22,45a1,1,0,0,1-1-1V42a1,1,0,0,1,2,0v2A1,1,0,0,1,22,45Z" fill="#464f5d"/>
    <path d="M28,45a1,1,0,0,1-1-1V42a1,1,0,0,1,2,0v2A1,1,0,0,1,28,45Z" fill="#464f5d"/>
    <path d="M9,6a1,1,0,0,1-.625-.219l-5-4A1,1,0,0,1,4.625.219l5,4A1,1,0,0,1,9,6Z" fill="#f3d55b"/>
    <path d="M41,6a1,1,0,0,1-.625-1.781l5-4a1,1,0,0,1,1.25,1.562l-5,4A1,1,0,0,1,41,6Z" fill="#f3d55b"/>
    <path d="M4,35a1,1,0,0,1-.625-1.781l5-4a1,1,0,0,1,1.25,1.562l-5,4A1,1,0,0,1,4,35Z" fill="#f3d55b"/>
    <path d="M46,35a1,1,0,0,1-.625-.219l-5-4a1,1,0,0,1,1.25-1.562l5,4A1,1,0,0,1,46,35Z" fill="#f3d55b"/>
    <path d="M7,17H4a1,1,0,0,1,0-2H7a1,1,0,0,1,0,2Z" fill="#f3d55b"/>
    <path d="M46,17H43a1,1,0,0,1,0-2h3a1,1,0,0,1,0,2Z" fill="#f3d55b"/>
    <path d="M31,33v6a3,3,0,0,1-3,3H22a3,3,0,0,1-3-3V33Z" fill="#95a5a5"/>
    <path d="M39,14a13.932,13.932,0,0,1-4.44,10.21A11.649,11.649,0,0,0,31,32.77V35H19V32.94a12.064,12.064,0,0,0-3.62-8.79A13.989,13.989,0,1,1,39,14Z" fill="#f0c419"/>
    <path d="M23,32a1,1,0,0,1-1-1V28a1,1,0,0,1,2,0v3A1,1,0,0,1,23,32Z" fill="#f29c1f"/>
    <path d="M23,24a1,1,0,0,1-1-1V22a1,1,0,0,1,2,0v1A1,1,0,0,1,23,24Z" fill="#f29c1f"/>
    <path d="M27,32a1,1,0,0,1-1-1V28a1,1,0,0,1,2,0v3A1,1,0,0,1,27,32Z" fill="#f29c1f"/>
    <path d="M27,24a1,1,0,0,1-1-1V22a1,1,0,0,1,2,0v1A1,1,0,0,1,27,24Z" fill="#f29c1f"/>
    <path d="M16,12a.976.976,0,0,1-.192-.019,1,1,0,0,1-.79-1.171c.925-4.761,5.41-6.657,5.6-6.735a1,1,0,1,1,.763,1.849c-.038.015-3.685,1.583-4.4,5.266A1,1,0,0,1,16,12Z" fill="#f9eab0"/>
</svg>
